X:1
T:Erbarm dich mein
T:Benedictus Ducis
T:Source : DDT 34---Leipzich---Breitkopf & Härtel---J.Wolf---1908. First publication : Neue Deudsche Geistliche Gesenge---Wittemberg---G.Rhau---1544. Editor : André Vierendeels (17/07/17).
T:Notes : Original Clefs : C1, C3, C4, F4 Original note values have been halved
T:Erbarm dich mein
T:©
T:©
T:©
T:©
T:©
C:Benedictus Ducis
Z:©
%%score [ 1 [ 2 3 ] 4 ]
L:1/8
Q:1/4=120
M:2/2
K:C
V:1 treble nm="Soprano" snm="S"
V:2 treble-8 nm="Tenor 1" snm="T 1"
V:3 treble-8 nm="Tenor 2" snm="T 2"
V:4 bass nm="Bass" snm="B"
V:1
 z8 | z8 | z8 | z8 | z8 | E8 | G4 G4 | A4 A2 c2- | c2 BA B2 B2 | A4 z4 | z2 G2 c4- | c2 B2 c2 A2 | %12
w: |||||Er-|barm dich|mein, O Her-|* * * * re|Gott,|nach dei-|* ner gros- sen|
 G3 F ED G2- | G2 F2 G2 D2 | E2 C2 D2 F2- | FE E4 D2 | E8- | E8- | E8 | z8 | E8 | G6 G2 | %22
w: Barm- * * * *||* * * her-|* * * zig-|keit.|_|||Wasch|ab, mach|
 A3 G AB c2- | c2 BA B2 B2 | A4 z4 | z2 G2 c4- | c2 B2 c2 A2 | G3 F ED G2- | G2 F2 G4 | %29
w: rein _ _ _ _|_ mein _ Mis- se-|tat,|ich kenn|_ mein Sünd und|ist _ _ _ _|_ mir leid,|
 z2 C2 D2 F2- | FE E4 D2 | E4 z2 E2 | A2 A4 G2 | A4 c4 | B2 G2 A4 | z2 B2 c4 | B2 G2 A2 GF | %37
w: und ist mir-||leid. Al-|lein ich dir|ge- sün-|* det han,|das ist|wi- der mich _ _|
 E2 G3 FED | FE A2 G2 F2- | F2 E4 D2 | E4 z2 G2 | A2 c4 B2 | A2 G2 F4 | E2 G3 F E2 | D2 C4 B,2 | %45
w: _ ste- * * *||* * tig-|lich. Das|Bös _ _|_ vor dir|mag nicht _ _|_ _ be-|
 C4 z2 G2 | C2 E2 F2 ED | E4 z2 c2- | c2 G2 A4 | G6 E2 | E8- | E8- | E8- | E8- | E8 |] %55
w: stan, di|bleibst _ _ _ _|g'recht, ob|_ _ du|ur- teilst|mich.|_||||
V:2
 z8 | z8 | e8 | g4 g2 g2- | g2 fe d4 | c3 B A2 GF | E4 e4 | c2 A2 c3 d | e2 c2 d2 e2 | A2 c2 f4- | %10
w: ||Er-|barm dich mein,|_ _ _ _||* O|Her- re Gott, _|_ O Her- re|Gott, nach dei-|
 f2 e2 fedc | d2 e2 ABcd | ef g4 e2- | e2 dc d4 | G2 A2 D2 d2- | dB c2 A4 | z2 A2 c4- | %17
w: * ner gros- * * *|* sen Barm- * * *|* * * her-|||* * zig keit.|Wasch ab,|
 c2 c2 c3 B | cd e2 e2 dc | B2 c2 d4 | c3 B A2 GF | E4 e4 | c6 A2 | e2 c2 d2 e2 | A2 c2 f4- | %25
w: _ mach rein _|_ _ _ mein _ _|_ _ _|Mis- * * se- *|tat, wasch|ab, mach|rein mein Mis- se-|tat, ich kenn|
 f2 e2 fedc | d2 e2 ABcd | ef g4 e2- | e2 dc d4 | G2 A2 D2 d2 | B2 c2 A4 | z2 A2 c4- | c2 c2 B4 | %33
w: _ mein Sünd _ _ _|_ _ und _ _ _|_ _ _ ist|_ _ _ _|mir _ _ _|_ _ leid.|Al- lein|_ ich dir|
 A2 c4 A2 | B2 c2 A2 GF | G4 z2 c2 | e4 d2 B2 | z2 c4 B2 | A2 c3 BAG | F2 G2 A3 B | cd e4 E2 | %41
w: ge- sün- *|det han, _ _ _|_ das|ist wi- der|mich _|ste- * * * *|||
 F4 E2 B2 | c4 d4 | B2 G2 c3 B | A2 G2 A2 f2- | f2 e3 dcB | AG c4 B2 | c2 BA B4 | A2 G4 F2 | %49
w: tig- lich, das|Bös vor|dich mag nicht _|_ be- stan, du|_ bleibst _ _ _|_ _ _ _|g'recht, _ _ _|_ _ _|
 G2 g4 e2 | f2 e4 d2 | e4 z2 c2- | c2 G2 A2 G2- | G2 AB c4 | B8 |] %55
w: * ob du|ur- * teilst|mich, ob|_ _ du ur-|* * * teilst|mich.|
V:3
 z8 | z8 | z8 | E8 | G4 G4 | A4 A2 c2- | c2 BA B2 B2 | A8 | z4 G4 | c6 B2 | c4 A2 A2 | G4 F4 | %12
w: |||Er-|barm dich|mein, O Her-|* * * * re|Gott,|nach|dei- ner|gros- sen Barm-|her- zig-|
 E4 z2 C2 | c6 B2 | c4 A2 A2 | G3 F/E/ F2 F2 | E8- | E8 | z4 E4 | G6 G2 | A3 G AB c2- | %21
w: keit, nach|dei- ner|gros- sen Barm-|her- * * * zig-|keit.|_|Wasch|ab, mach|rein _ _ _ _|
 c2 BA B2 B2 | A8 | z4 G4 | c6 B2 | c4 A4 | G4 F4 | E4 z2 C2 | c6 B2 | c4 A4 | G2 FE F2 F2 | E8 | %32
w: _ mein _ Mis- se-|tat,|ich|kenn mein|Sünd und|ist mir|leid, ich|kenn mein|Sünd und|ist _ _ _ mir|leid.|
 z4 z2 E2 | A4 A4 | G4 c4 | B2 G2 A4 | G4 z2 G2 | c4 G4 | A4 E2 A2- | A2 G2 F4 | E8 | z4 z2 E2 | %42
w: Al-|lein ich|dir ge-|sün- * det|han, das|ist wi-|der mich ste-|* * tig-|lich,|das|
 A4 A4 | G4 E4 | F2 E2 D4 | C8 | z8 | z2 C2 G4 | A2 c4 B2 | c4 G2 A2- | A2 G2 F4 | E8- | E8- | %53
w: Bös vor|dir mag|nicht _ be-|stan,||du bleibst|g'recht, ob du|ur- * *|* * teilst|mich.|_|
 E8- | E8 |] %55
w: ||
V:4
 E,8 | G,4 G,4 | A,4 A,2 C2- | C2 B,A, B,2 E,2- | E,2 D,C, B,,2 B,,2 | A,,8 | z4 E,4 | F,6 F,2 | %8
w: Er-|barm dich|mein, O Her-||* * * * re|Gott,|nach|dei- ner|
 C,2 F,4 E,2 | F,4 D,4 | C,4 z4 | z2 G,2 C4- | C2 B,2 C4 | A,2 A,2 G,3 F, | E,2 F,4 D,2- | %15
w: gros- zen Barm-|her- zig-|keit,|nach dei-|* ner gros-|sen Barm- her- *||
 D,E, C,2 D,4 | A,,4 z2 A,,2 | C,6 C,2 | C,3 B,, C,D, E,2- | E,2 D,C, B,,2 B,,2 | A,,8 | z4 E,4 | %22
w: * * * zig-|keit. Wasch|ab, mach|rein _ _ _ _|_ mein _ Mis- se-|tat,|ich|
 F,6 F,2 | C,2 F,4 E,2 | F,4 D,4 | C,4 z4 | z2 G,2 C4- | C2 B,2 C4 | A,2 A,2 G,3 F, | E,2 F,4 D,2 | %30
w: kenn mein|Sünd _ und|ist mir|leid,|ich kenn|_ mein Sünd|_ und ist _|_ _ _|
 E,2 C,2 D,4 | A,,8 | z4 E,4 | F,4 F,4 | G,2 E,2 F,2 A,2- | A,G, G,4 F,2 | G,2 E,2 F,2 G,2 | %37
w: * * mir|leid.|Al-|lein ich|dir _ ge- sün-||* * * det|
 C,3 D, E,4 | A,,3 B,, C,2 D,2- | D,2 E,2 F,2 A,2- | A,2 G,2 C2 B,2- | B,A, A,4 G,2 | %42
w: han, _ _|das _ _ ist|_ _ _ wi-|* der mich ste-||
 F,2 E,2 E,2 D,2 | E,4 C,4 | z2 G,4 F,2 | A,2 G,4 E,2 | F,2 E,2 D,4 | C,2 G,4 E,2 | F,2 E,2 D,4 | %49
w: |tig- lich.|Das Bös|_ _ _|* vor dir|mag nicht- *|* * be-|
 C,8 | z8 | C,4 G,,2 A,,2- | A,,2 G,,2 C,3 D, | E,4 A,,4 | E,8 |] %55
w: stan,||du _ bleibst|_ g'recht, ob du|ur- teilst|mich.|

